!!!SOCIAL_FUNCTION:	bird dance songs
!!!PDT:	1956
!!!OTL: No_145_Rabbit_Dance_Song.krn
!!!LANG: Non-Tone
!!!LING_GROUP: Muskogean
!!!REG: Florida
**kern
*staff1
=1-
*clefF4
*k[f#]
*M2/4
8r
16c\LL
16c\JJ
8.c\L
16A\Jk
=2!|:
*M3/4
4G\
8.r
16G\
8.E\L
16D\Jk
=3
4D\
8.r
16D\
8.BB/L
16D/Jk
=4||
*M2/4
4D\
8.r
16G\
=5||
*M3/4
(12E\L
12D\)
12D\J
8.D\L
16G\Jk
(12G\L
12E\)
12A\J
=6
4G\
8.r
16G\
8.E\L
16D\Jk
=7
4D\
8.r
16D\
8.BB/L
16D/Jk
=8||
*M2/4
4D\
8.r
16G\
=9||
*M3/4
8.E\L
16D\Jk
8.D\L
16c\Jk
8.c\L
16A\Jk
=10||
*M2/4
4..G\
16G\
=11||
*M3/4
(12E\L
12D\)
12D\J
8.D\L
16G\Jk
(12G\L
12E\)
12A\J
=12
4G\
8.r
16G\
8.E\L
16D\Jk
=13
4D\
8.r
16D\
8.BB/L
16D/Jk
=14||
*M2/4
4D\
8.r
16G\
=15
(12E\L
12D\)
12D\J
8D\L
16A\L
16A\JJ
=16
8.A\L
16A\Jk
16A\
16r
16A\LL
16A\JJ
=17||
=
*M3/4
8.A\L
16A\Jk
16A\
16r
16c\LL
16c\JJ
8.c\L
16A\Jk
=18:|!
*M2/4
8.A\L
16A\Jk
8A\
8r
==
*-
